X: 24850
T: Maggie's Pancakes
R: reel
M: 4/4
K: Bminor
|:"Bm"fBBB fgfe|"G"dBAB GBdB|"A"cAAd AAec|"Em"afdB "A"ecAc|
"Bm"dBBB fgfe|"G"dBAB GBdB|"A"cAdB ecAA|afec "Bm"B4:|
|:"Bm"ffdB "G"GBdB|"A"caec "Bm"dBBB|"Bm"ffdB "G"GBdB|"A"caec "Bm"Bcde|
"D"fddd fgfe|"G"dBAB GBdB|"A"cAdB eAAA|afec "Bm"B4:|

